packages/core/src/svgs/networks/branded/stellar.svg

<svg width="24" height="24" viewBox="0 0 24 24" fill="none" xmlns="http://www.w3.org/2000/svg">
<path d="M5.13999 12.9427C4.94142 11.3798 5.24247 9.79412 5.99999 8.4127C6.59164 7.33064 7.45538 6.42169 8.50588 5.77566C9.53891 5.14162 10.7244 4.79911 11.9365 4.78447C13.1482 4.77253 14.3404 5.08926 15.3865 5.70095L16.9706 4.85918C15.7207 3.90832 14.2255 3.33387 12.6606 3.20329C11.1006 3.07724 9.53713 3.40208 8.15645 4.13918C6.75348 4.89101 5.58634 6.017 4.78469 7.39212C3.85098 8.98775 3.42484 10.8297 3.56293 12.6733C3.58612 12.988 3.51919 13.3029 3.36999 13.581C3.22117 13.8574 2.99764 14.081 2.72705 14.2251L2 14.6115V16.4145L22 5.78565V3.98389L5.13999 12.9427ZM22 7.58918L6.21176 15.9726L2 18.2121V20.0133L18.8641 11.0515C18.9035 11.3668 18.9229 11.6838 18.9229 12.0016C18.9236 13.2568 18.6077 14.4918 18.0047 15.5927C17.4124 16.6761 16.5474 17.5859 15.4952 18.2321C14.4607 18.8664 13.2735 19.2083 12.06 19.2215C10.8518 19.2333 9.66175 18.9151 8.60764 18.2986L8.52292 18.3456L7.02881 19.1398C8.27823 20.0906 9.77307 20.6652 11.3376 20.7962C12.8977 20.9225 14.461 20.5979 15.8418 19.8609C17.2447 19.1099 18.4119 17.9847 19.2141 16.6103C20.1494 15.0131 20.576 13.1689 20.4371 11.3233C20.414 11.0088 20.481 10.6942 20.6299 10.4163C20.7758 10.1429 20.9994 9.91875 21.2723 9.77216L22 9.38565V7.58918Z" fill="black"/>
</svg>

<svg xmlns="http://www.w3.org/2000/svg" width="24" height="24" fill="none" viewBox="0 0 24 24">
    <path fill="#000" d="M5.14 12.943A7.47 7.47 0 0 1 6 8.413a7.1 7.1 0 0 1 2.506-2.637 6.7 6.7 0 0 1 3.43-.992 6.7 6.7 0 0 1 3.45.917l1.585-.842a8.25 8.25 0 0 0-4.31-1.656 8.17 8.17 0 0 0-4.505.936 8.6 8.6 0 0 0-3.371 3.253 9.1 9.1 0 0 0-1.222 5.281c.023.315-.044.63-.193.908a1.57 1.57 0 0 1-.643.644L2 14.611v1.803L22 5.787V3.984zM22 7.589 6.212 15.973 2 18.213v1.8l16.864-8.961q.06.473.059.95c0 1.255-.315 2.49-.918 3.59a7.1 7.1 0 0 1-2.51 2.64 6.7 6.7 0 0 1-3.435.99 6.7 6.7 0 0 1-3.452-.923l-.085.047-1.494.794a8.25 8.25 0 0 0 4.309 1.656 8.17 8.17 0 0 0 4.504-.935 8.6 8.6 0 0 0 3.372-3.25 9.1 9.1 0 0 0 1.223-5.288 1.66 1.66 0 0 1 .193-.907 1.57 1.57 0 0 1 .642-.644L22 9.386z"/>
</svg>
